NotoEmoji/emoji_u1f31e.svg

<svg enable-background="new 0 0 128 128" viewBox="0 0 128 128" xmlns="http://www.w3.org/2000/svg" xmlns:xlink="http://www.w3.org/1999/xlink"><radialGradient id="a" cx="64" cy="64" gradientUnits="userSpaceOnUse" r="75.4805"><stop offset=".5558" stop-color="#ffb604"/><stop offset=".6908" stop-color="#fec61b"/><stop offset=".8224" stop-color="#fdd835"/></radialGradient><radialGradient id="b" cx="66.1473" cy="100.9237" gradientTransform="matrix(1 0 0 1.0876 0 -8.8438)" gradientUnits="userSpaceOnUse" r="66.5699"><stop offset=".6937" stop-color="#ffb604"/><stop offset=".8488" stop-color="#fec61b"/><stop offset="1" stop-color="#fdd835"/></radialGradient><linearGradient id="c"><stop offset="0" stop-color="#ef6c00"/><stop offset="1" stop-color="#ef6c00" stop-opacity="0"/></linearGradient><radialGradient id="d" cx="-1858.1588" cy="139.6084" gradientTransform="matrix(-.7447 -.3192 -.3117 .736 -1297.374 -633.6735)" gradientUnits="userSpaceOnUse" r="15.525" xlink:href="#c"/><radialGradient id="e" cx="200.2442" cy="-2.317" gradientTransform="matrix(.7447 -.3192 .3117 .736 -63.2902 127.8907)" gradientUnits="userSpaceOnUse" r="15.525" xlink:href="#c"/><path d="m126.99 80.89-18.89-16.76c.02-.1.04-.2.06-.3l18.84-16.69-24.83-5.09-.07-.12 8-24.05-24.02 8.02-.12-.08-5.1-24.82-16.85 19.03h-.02l-16.88-19.02-5.08 24.88c-.02.01-.04.02-.06.03l-24.07-8.04 8 24.05c-.04.04-.07.09-.11.13l-24.78 5.05 19 16.87-.01.05-19 16.83 24.89 5.11.02.04-8.02 24.11 24.05-8.03.1.08 5.1 24.83 16.84-19.01h.05l16.87 19 5.07-24.86.07-.04 24.09 8.02-8.02-24.03.07-.12z" fill="#ffb300"/><path d="m126.99 80.89-18.89-16.76c.02-.1.04-.2.06-.3l18.84-16.69-24.83-5.09-.07-.12 8-24.05-24.02 8.02-.12-.08-5.1-24.82-16.85 19.03h-.02l-16.88-19.02-5.08 24.88c-.02.01-.04.02-.06.03l-24.07-8.04 8 24.05c-.04.04-.07.09-.11.13l-24.78 5.05 19 16.87-.01.05-19 16.83 24.89 5.11.02.04-8.02 24.11 24.05-8.03.1.08 5.1 24.83 16.84-19.01h.05l16.87 19 5.07-24.86.07-.04 24.09 8.02-8.02-24.03.07-.12z" fill="url(#a)"/><circle cx="64" cy="64" fill="#ffb300" r="42.46"/><circle cx="64" cy="64" fill="url(#b)" r="42.46"/><g fill="#5d4037"><ellipse cx="46.8" cy="54.29" rx="5.25" ry="6.17"/><ellipse cx="81.2" cy="54.29" rx="5.25" ry="6.17"/><path d="m75.81 75.67c-1.7 1.11-5.31 3.72-11.82 3.72s-10.4-2.54-11.99-3.85c-.73-.61-1.66-1.1-2.34-.59s-.81 1.55-.33 2.29c1.84 2.85 6.71 7.13 14.65 7.27 7.94-.14 12.81-4.42 14.65-7.27.4-.62.44-1.51-.03-1.99-.61-.64-1.75-.26-2.79.42z"/></g><path d="m58.89 69.52c-1.39-1.42-.11-2.17 1.42-1.74 1.93.54 5.01.28 5.81-1.3 1.52-3.04-.38-4.76-2.74-10.02-2.46-5.5.63-11.49 4.2-11.8 2.86-.24 1.91 1.12 1.01 1.7-1.75 1.14-3.6 4.93-.77 9.17 4.82 7.21 4.82 10.62 2.33 14.06-1.61 2.22-7.35 3.94-11.26-.07z" fill="#de7321"/><path d="m50.38 71.89c-1.63 3.93-7.05 5.42-12.12 3.33-5.06-2.09-7.85-6.98-6.22-10.91s7.05-5.42 12.12-3.33c5.06 2.09 7.85 6.98 6.22 10.91z" fill="url(#d)" opacity=".65"/><path d="m77.62 71.89c1.63 3.93 7.05 5.42 12.12 3.33 5.06-2.09 7.85-6.98 6.22-10.91s-7.05-5.42-12.12-3.33c-5.06 2.09-7.85 6.98-6.22 10.91z" fill="url(#e)" opacity=".65"/></svg>

<?xml version="1.0" encoding="utf-8"?>
<!-- Generator: Adobe Illustrator 24.1.2, SVG Export Plug-In . SVG Version: 6.00 Build 0)  -->
<svg version="1.1" id="daek_moon" xmlns="http://www.w3.org/2000/svg" xmlns:xlink="http://www.w3.org/1999/xlink" x="0px" y="0px"
	 viewBox="0 0 128 128" style="enable-background:new 0 0 128 128;" xml:space="preserve">
<g>
	<path style="fill:#FFB300;" d="M126.99,80.89L108.1,64.13c0.02-0.1,0.04-0.2,0.06-0.3L127,47.14l-24.83-5.09l-0.07-0.12l8-24.05
		L86.08,25.9l-0.12-0.08L80.86,1L64.01,20.03l-0.02,0L47.11,1.01l-5.08,24.88c-0.02,0.01-0.04,0.02-0.06,0.03l-24.07-8.04l8,24.05
		c-0.04,0.04-0.07,0.09-0.11,0.13L1.01,47.11l19,16.87L20,64.03L1,80.86l24.89,5.11l0.02,0.04l-8.02,24.11l24.05-8.03l0.1,0.08
		L47.14,127l16.84-19.01l0.05,0l16.87,19l5.07-24.86l0.07-0.04l24.09,8.02l-8.02-24.03l0.07-0.12L126.99,80.89z"/>
	<radialGradient id="SVGID_1_" cx="64" cy="64" r="75.4805" gradientUnits="userSpaceOnUse">
		<stop  offset="0.5558" style="stop-color:#FFB604"/>
		<stop  offset="0.6908" style="stop-color:#FEC61B"/>
		<stop  offset="0.8224" style="stop-color:#FDD835"/>
	</radialGradient>
	<path style="fill:url(#SVGID_1_);" d="M126.99,80.89L108.1,64.13c0.02-0.1,0.04-0.2,0.06-0.3L127,47.14l-24.83-5.09l-0.07-0.12
		l8-24.05L86.08,25.9l-0.12-0.08L80.86,1L64.01,20.03l-0.02,0L47.11,1.01l-5.08,24.88c-0.02,0.01-0.04,0.02-0.06,0.03l-24.07-8.04
		l8,24.05c-0.04,0.04-0.07,0.09-0.11,0.13L1.01,47.11l19,16.87L20,64.03L1,80.86l24.89,5.11l0.02,0.04l-8.02,24.11l24.05-8.03
		l0.1,0.08L47.14,127l16.84-19.01l0.05,0l16.87,19l5.07-24.86l0.07-0.04l24.09,8.02l-8.02-24.03l0.07-0.12L126.99,80.89z"/>
	<circle style="fill:#FFB300;" cx="64" cy="64" r="42.46"/>
	
		<radialGradient id="SVGID_2_" cx="66.1473" cy="100.9237" r="66.5699" gradientTransform="matrix(1 0 0 1.0876 0 -8.8438)" gradientUnits="userSpaceOnUse">
		<stop  offset="0.6937" style="stop-color:#FFB604"/>
		<stop  offset="0.8488" style="stop-color:#FEC61B"/>
		<stop  offset="1" style="stop-color:#FDD835"/>
	</radialGradient>
	<circle style="fill:url(#SVGID_2_);" cx="64" cy="64" r="42.46"/>
	<g>
		<ellipse style="fill:#5D4037;" cx="46.8" cy="54.29" rx="5.25" ry="6.17"/>
		<ellipse style="fill:#5D4037;" cx="81.2" cy="54.29" rx="5.25" ry="6.17"/>
	</g>
	<path style="fill:#5D4037;" d="M75.81,75.67c-1.7,1.11-5.31,3.72-11.82,3.72S53.59,76.85,52,75.54c-0.73-0.61-1.66-1.1-2.34-0.59
		c-0.68,0.51-0.81,1.55-0.33,2.29c1.84,2.85,6.71,7.13,14.65,7.27c7.94-0.14,12.81-4.42,14.65-7.27c0.4-0.62,0.44-1.51-0.03-1.99
		C77.99,74.61,76.85,74.99,75.81,75.67z"/>
	<path style="fill:#DE7321;" d="M58.89,69.52c-1.39-1.42-0.11-2.17,1.42-1.74c1.93,0.54,5.01,0.28,5.81-1.3
		c1.52-3.04-0.38-4.76-2.74-10.02c-2.46-5.5,0.63-11.49,4.2-11.8c2.86-0.24,1.91,1.12,1.01,1.7c-1.75,1.14-3.6,4.93-0.77,9.17
		c4.82,7.21,4.82,10.62,2.33,14.06C68.54,71.81,62.8,73.53,58.89,69.52z"/>
	<g>
		
			<radialGradient id="SVGID_3_" cx="-1858.1588" cy="139.6084" r="15.525" gradientTransform="matrix(-0.7447 -0.3192 -0.3117 0.736 -1297.374 -633.6735)" gradientUnits="userSpaceOnUse">
			<stop  offset="0" style="stop-color:#EF6C00"/>
			<stop  offset="1" style="stop-color:#EF6C00;stop-opacity:0"/>
		</radialGradient>
		<path style="opacity:0.65;fill:url(#SVGID_3_);" d="M50.38,71.89c-1.63,3.93-7.05,5.42-12.12,3.33
			c-5.06-2.09-7.85-6.98-6.22-10.91c1.63-3.93,7.05-5.42,12.12-3.33C49.22,63.07,52.01,67.96,50.38,71.89z"/>
		
			<radialGradient id="SVGID_4_" cx="200.2442" cy="-2.317" r="15.525" gradientTransform="matrix(0.7447 -0.3192 0.3117 0.736 -63.2902 127.8907)" gradientUnits="userSpaceOnUse">
			<stop  offset="0" style="stop-color:#EF6C00"/>
			<stop  offset="1" style="stop-color:#EF6C00;stop-opacity:0"/>
		</radialGradient>
		<path style="opacity:0.65;fill:url(#SVGID_4_);" d="M77.62,71.89c1.63,3.93,7.05,5.42,12.12,3.33c5.06-2.09,7.85-6.98,6.22-10.91
			c-1.63-3.93-7.05-5.42-12.12-3.33C78.78,63.07,75.99,67.96,77.62,71.89z"/>
	</g>
</g>
</svg>
